www/assets/icons/logo_dev.svg

<svg xmlns="http://www.w3.org/2000/svg" width="24" height="24" viewBox="0 0 24 24" fill='currentColor'><path d="M19 3H5c-1.1 0-2 .9-2 2v14c0 1.1.9 2 2 2h14c1.1 0 2-.9 2-2V5c0-1.1-.9-2-2-2M7.68 14.98H6V9h1.71c1.28 0 1.71 1.03 1.71 1.71v2.56c0 .68-.42 1.71-1.74 1.71m4.7-3.52v1.07H11.2v1.39h1.93v1.07h-2.25c-.4.01-.74-.31-.75-.71V9.75c-.01-.4.31-.74.71-.75h2.28v1.07H11.2v1.39zm4.5 2.77c-.48 1.11-1.33.89-1.71 0L13.77 9h1.18l1.07 4.11L17.09 9h1.18z"/><path d="M7.77 10.12h-.63v3.77h.63c.14 0 .28-.05.42-.16.14-.1.21-.26.21-.47v-2.52c0-.21-.07-.37-.21-.47a.72.72 0 0 0-.42-.15"/></svg>

<svg width="24" height="24" viewBox="0 0 24 24" xmlns="http://www.w3.org/2000/svg" fill='currentColor'><path d="M19 3H5C3.9 3 3 3.9 3 5V19C3 20.1 3.9 21 5 21H19C20.1 21 21 20.1 21 19V5C21 3.9 20.1 3 19 3ZM7.68 14.98H6V9H7.71C8.99 9 9.42 10.03 9.42 10.71V13.27C9.42 13.95 9 14.98 7.68 14.98ZM12.38 11.46V12.53H11.2V13.92H13.13V14.99H10.88C10.48 15 10.14 14.68 10.13 14.28V9.75C10.12 9.35 10.44 9.01 10.84 9H13.12V10.07H11.2V11.46H12.38ZM16.88 14.23C16.4 15.34 15.55 15.12 15.17 14.23L13.77 9H14.95L16.02 13.11L17.09 9H18.27L16.88 14.23Z"/><path d="M7.77 10.12H7.14V13.89H7.77C7.91 13.89 8.05 13.84 8.19 13.73C8.33 13.63 8.4 13.47 8.4 13.26V10.74C8.4 10.53 8.33 10.37 8.19 10.27C8.05 10.17 7.91 10.12 7.77 10.12Z"/></svg>
